packages/core/src/svgs/tokens/branded/SAMO.svg

<svg width="24" height="24" viewBox="0 0 24 24" fill="none" xmlns="http://www.w3.org/2000/svg">
<path d="M14.1012 2.7187C13.4895 5.28912 13.5718 5.11855 11.4014 4.93032C10.6896 5.10679 10.1662 4.66564 9.3604 5.01268C9.30742 5.17737 9.26034 5.27736 9.13092 5.19501C9.06038 4.95973 9.14272 5.11266 9.26034 4.90092C9.68979 4.20683 9.44851 3.82451 8.92506 2.91868L8.44863 2.37165C8.44863 2.27754 8.13687 2.32459 8.06629 2.32459C6.9193 2.65987 5.46056 7.75368 5.34293 7.94779L5.00765 7.78309C4.89002 8.91243 5.39587 8.74773 4.65473 9.14771C4.63121 9.24182 4.71356 9.56534 4.78414 9.7535C4.90178 10.0888 5.11354 10.577 4.90178 10.8594C3.69597 12.5417 3.09601 15.7414 4.19006 17.6061C5.11941 19.1295 5.3841 19.1589 5.86054 20.1118C6.09582 19.5117 13.466 20.9 16.007 18.6825C18.501 16.4649 19.1127 15.8827 18.9951 12.9593C18.5716 9.59471 17.8068 5.34207 15.6129 2.64811C15.5188 2.53046 15.0541 2.23637 14.9071 2.18931C14.5895 2.10696 14.3013 2.51283 14.1012 2.7187Z" fill="#EEEEEC"/>
<path d="M10.6892 19.3118C9.83046 19.453 9.90691 19.3118 9.21285 19.1942C8.63643 19.2883 7.30121 18.6942 6.77771 18.2884C6.58361 18.1473 6.39539 17.9767 6.20128 17.8591C6.27186 18.0472 6.31893 18.2119 6.41891 18.406C4.79549 17.9355 4.11906 14.9885 3.83084 14.6298C3.5191 15.5591 3.94847 17.0768 4.33669 17.7472C4.59549 18.1766 4.94254 18.5413 5.20723 18.9237C5.32486 19.1118 5.44251 19.3177 5.56014 19.5354C5.7719 19.9178 5.79543 19.9059 6.03071 20.0295V19.4294C6.13069 19.5236 6.13658 19.5766 6.23069 19.7176C8.2541 22.6881 13.2597 21.3293 15.4654 19.4294C15.8007 19.1 16.1183 18.6471 16.4947 18.3825C16.4947 18.4472 16.583 18.559 16.6124 18.6178C17.0889 18.4767 18.2829 17.1944 18.6182 16.6944C19.53 15.312 19.2417 14.5004 19.3594 13.5711C19.6476 13.7122 19.5946 13.9239 19.9358 14.0415C19.8348 12.8432 19.3665 11.7052 18.5946 10.7829C18.2829 10.4007 18.3123 9.97122 18.5475 9.47123L18.7534 9.03012C17.33 9.10071 18.5771 9.54768 18.5182 7.83607L17.9535 7.70667C17.8535 7.80666 17.8535 7.63608 17.8359 7.97136C17.8064 8.35369 17.8771 8.25958 17.6594 8.71249C17.7359 8.83012 17.8064 8.78308 17.8535 8.94777C17.9476 9.5124 17.4829 10.1006 17.0889 10.4241C17.33 10.6182 17.5241 10.6594 17.8771 10.7594C18.0946 10.9007 18.6888 12.4769 18.7888 13.0475C18.8358 13.3769 18.924 13.7651 18.6711 14.024C18.6182 13.5475 18.5241 13.3769 18.2359 13.1181C18.1888 13.2122 18.1888 13.1181 18.2124 13.3534C18.477 14.7651 17.977 16.9767 16.5418 17.4767C16.6124 17.1944 16.7595 17.1708 16.83 16.7885C14.8655 17.7649 13.8184 19.4178 11.3363 19.6707C11.5068 19.4353 11.6009 19.4824 11.7481 19.3589C11.8362 19.2883 11.7656 19.3354 11.8362 19.2413C11.648 19.2413 10.6892 19.453 10.6892 19.3118Z" fill="#DDDAD9"/>
<path d="M8.37793 21.1235C8.42498 21.1705 8.42498 21.1705 8.49556 21.2176L8.61321 21.2647C8.68378 21.2882 8.78378 21.3118 8.87789 21.3646L9.33078 21.5293L8.37793 21.3882C8.49556 21.6 8.90143 21.6705 9.11901 21.7411C10.0014 22.0058 11.1483 22.0764 12.0307 21.9117C14.2246 21.4999 14.6306 21.0058 15.3246 20.8118C15.5892 21.0058 15.854 21.4117 16.3245 21.3882C16.4716 19.6707 18.1185 19.4824 19.289 17.5061C19.9832 16.2944 20.6008 15.9003 20.0655 13.6769C19.9948 13.3887 19.9478 13.1063 19.8301 12.8416C19.7361 12.63 19.5185 12.0299 19.3538 11.8888C19.5185 12.5358 19.6361 13.0063 19.7066 13.7945C19.4714 13.6769 19.6361 13.7005 19.3538 13.5593C19.2361 14.4885 19.4302 15.312 18.5478 16.6708C18.2127 17.1708 17.0833 18.4178 16.6069 18.559C16.5774 18.5001 16.4891 18.3943 16.4891 18.3236C16.101 18.6178 15.7834 19.1 15.3952 19.406C14.7416 19.9739 14.0007 20.4327 13.2011 20.7647C12.0071 21.3411 9.52498 21.5058 8.37793 21.1235Z" fill="#CBC5C5"/>
<path d="M5.22454 7.61251L4.77163 7.40076C4.7481 8.06542 4.86575 8.37716 4.88927 8.9242C4.60106 8.94772 4.48341 9.01831 4.28931 9.08888C4.58341 9.73593 4.79516 9.90063 4.77163 10.7123C4.10108 11.8299 3.38349 12.9769 3.4776 14.3592L3.64817 14.2592C3.26584 18.3825 4.88927 17.6707 5.72452 20.3588C6.01273 20.2883 6.03626 20.2176 6.25389 20.0294C7.13619 20.8588 7.27737 20.8882 8.33024 21.3646L9.28307 21.5058C9.18906 21.4823 8.97139 21.3882 8.83021 21.3411C8.75963 21.3117 8.65963 21.2881 8.56552 21.241L8.44789 21.1941C8.3773 21.147 8.3773 21.147 8.33024 21.0999C7.84791 21.0999 6.63034 20.1941 6.24802 19.6236C6.17743 19.506 6.13037 19.4059 6.01273 19.2883L5.98921 20.0058C5.75393 19.8882 5.77158 19.8118 5.57747 19.4294C5.45982 19.2177 5.31866 19.0294 5.20102 18.8413C4.93632 18.453 4.6481 18.1472 4.3893 17.6943C4.00697 17.0237 3.57758 15.5238 3.88345 14.5945C3.93639 14.1415 4.07756 13.7357 4.24225 13.3827C3.98345 13.4769 4.21873 13.4534 3.78934 13.7121C3.81286 12.8299 4.45988 11.5947 4.93632 10.9241C5.29513 10.4535 4.6481 9.33009 4.70105 9.18888C4.95986 9.04183 5.20102 9.40064 5.38924 9.51826C5.2716 8.99477 4.93632 8.47128 5.00691 7.75368L5.34219 7.92425C5.45982 7.73014 6.89504 2.63046 8.06554 2.30106C8.97138 2.03637 9.94776 4.04213 10.2419 4.68328C9.93019 4.7068 9.40083 4.77739 9.28307 5.11266C9.68905 4.99502 9.93019 4.87737 10.4007 4.94209C11.0242 5.04207 10.6183 5.18324 11.3829 4.99502C11.9359 4.84798 13.1065 4.99502 13.5123 5.25383C13.7241 5.11266 13.2182 4.94209 13.0299 4.8715C13.2005 4.37152 14.2239 2.03637 14.8945 2.20695C16.0121 2.46576 17.6414 6.63609 17.9296 7.65957L18.165 8.04189L18.4296 7.85368C18.4532 8.5654 18.0943 9.01831 17.9002 9.56533C18.2355 9.37717 18.2355 9.09477 18.7414 9.06536L18.5237 9.42411C18.2885 9.92409 18.259 10.3535 18.5708 10.7359C19.1237 11.3829 19.8354 12.7828 20.0531 13.665C20.1707 14.165 20.3177 15.0767 20.1236 15.5474C19.9355 15.2885 19.7883 14.9298 19.5943 14.7121C19.6707 16.5708 19.0472 17.453 17.6179 18.6236L16.9944 19.1941C16.1827 20.0058 16.3063 20.147 15.971 20.5294C15.7062 20.1 15.8945 19.9059 15.971 19.4294C15.2298 19.9823 15.3711 20.3117 14.2064 20.7881C12.983 21.2881 12.2418 21.3411 11.8359 21.5058C13.1065 21.5999 14.9651 20.9587 15.5651 20.2706L15.6122 20.3352C15.8474 20.8352 15.5415 20.4118 16.0886 21.0058C16.2533 20.8352 16.3238 20.4587 16.4709 20.2412C17.0415 19.6471 17.5708 19.2412 18.1885 18.6942C18.812 18.1236 18.812 17.9766 19.2649 17.3119C19.7413 16.6179 19.6943 16.4532 19.859 15.9002C19.9766 15.5238 19.9766 15.812 19.9766 15.8356L20.1707 16.1884C20.2883 16.0943 20.2883 16.0943 20.3884 15.7649C21.2001 12.9769 18.259 10.824 18.7649 9.64178C18.9061 9.30648 19.0001 9.30649 19.2649 9.11242C18.9532 8.87714 18.9532 8.85361 18.5472 8.83008C18.7178 8.35364 18.7414 7.92425 18.6884 7.37722C18.5472 7.49487 18.4061 7.61251 18.2355 7.73014C17.8297 6.40081 17.0003 4.25389 16.1591 3.11278C15.0417 1.55993 14.5358 1.67758 13.6063 3.18337C13.3888 3.53628 12.9594 4.41859 12.8417 4.83033C12.3654 4.80091 12.1712 4.65387 11.6242 4.75385C10.7419 4.89502 11.4771 4.97148 10.5713 4.80091C10.2831 3.96567 9.23613 1.9658 8.13613 2.10696C6.89504 2.2246 5.58334 6.34787 5.22454 7.61251Z" fill="#242323"/>
<path d="M9.76606 16.4532C9.83071 16.165 9.93076 16.0003 10.0484 15.7886L11.0718 16.312C11.0248 16.7415 10.8719 17.0179 10.8719 17.4885C10.8719 17.8002 11.0659 18.3236 10.9895 18.559C10.8013 19.0589 9.80134 18.9178 9.30725 18.9119C8.6602 18.8354 8.25435 17.4531 8.95431 16.1473C9.2131 15.6414 9.23671 15.7886 9.57186 15.4767L9.83071 15.6414C9.18373 16.5238 9.42487 17.5002 9.52492 18.2413C9.59547 17.6944 9.52492 16.8591 9.76016 16.4532H9.76606ZM9.2131 19.1942C9.90715 19.3354 9.83071 19.4589 10.6895 19.3118C10.8366 19.2178 10.9836 19.1707 11.1012 19.0766C11.6012 18.6942 11.3366 17.8236 11.3835 17.2531C11.86 16.9178 12.7482 16.812 13.3423 15.5238L13.7011 14.5945L13.654 15.165C13.7481 14.9769 13.8894 14.9062 13.9187 14.5768C13.9422 14.3063 13.7716 14.118 13.654 13.9769L12.7482 13.0945C12.8658 13.4769 13.1012 13.8298 13.4128 14.0474C13.3423 14.7356 12.6482 15.5945 12.0011 15.9296C11.1719 16.3591 10.2602 15.5474 9.73656 15.2121V14.6416C10.0719 14.4769 10.2661 14.4769 10.5248 14.2358C11.36 13.4298 11.0013 12.524 9.73656 12.4535C9.35433 12.4241 8.97196 12.4535 8.71314 12.6416C8.47198 12.8063 8.33081 13.0711 8.35433 13.4298C8.40139 14.0004 9.00133 14.4533 9.47195 14.5945V15.2651C9.2367 15.3827 8.97196 15.5945 8.70726 15.765C8.04259 16.1944 7.30146 14.7356 7.51909 13.5475C7.66026 12.8534 8.16611 12.4535 8.6602 12.1652C9.37779 11.7594 9.93076 11.83 10.7659 12.0006C10.313 11.4712 8.92489 11.524 8.16024 12.1887C7.54263 12.7181 7.01324 13.3299 7.30146 14.6004C7.58968 15.9296 7.97201 15.665 8.23081 16.2415C8.33081 16.4296 8.52492 16.5943 8.52492 16.812C8.52492 17.0002 8.42492 17.2649 8.40139 17.5766C8.33081 18.6237 8.78372 18.8118 9.2131 19.1942Z" fill="#242323"/>
<path d="M9.29559 18.9178C9.77211 19.0884 10.6661 18.8589 10.6896 18.3354C10.6896 18.1473 10.5956 17.7178 10.5956 17.4767C10.5956 17.1708 10.6191 16.8591 10.572 16.5709C10.319 16.1767 9.9309 16.065 9.68386 16.418C9.41911 16.8238 9.58381 17.2296 9.56624 17.7296C9.44272 16.9885 9.23685 16.5003 9.9073 15.6179L9.56034 15.4651C9.22505 15.7708 9.22504 15.565 8.9662 16.065C8.22508 17.3766 8.65447 18.8472 9.29559 18.9178Z" fill="#EA888D"/>
<path d="M16.3123 7.51842C16.577 7.15962 16.3064 5.51854 15.9477 4.848C15.73 4.41861 15.1359 3.03634 14.4654 3.25398C14.1772 4.1598 13.9184 5.29503 14.7771 5.95968C15.0419 5.81853 15.0182 5.75383 15.1888 5.54207C15.4241 5.84794 15.5123 6.13027 15.5594 6.54201L15.9477 6.36555C15.8947 6.81257 15.8358 7.32431 16.3123 7.51842Z" fill="#CEB1AE"/>
<path d="M14.4653 3.2775C15.1358 3.05987 15.7299 4.44213 15.9476 4.87152C16.277 5.54207 16.5652 7.11255 16.3005 7.47136L16.4005 7.56547L16.7827 7.87722C16.971 7.99486 17.1651 8.13603 17.4299 8.08897C17.7593 7.42431 16.7593 5.20679 16.4711 4.63624C16.1828 4.08922 15.8946 3.6363 15.6123 3.20691C15.1358 2.46578 14.8241 2.41873 14.4653 3.2775Z" fill="#CBC5C5"/>
<path d="M6.91822 7.42436C7.2535 7.18908 7.18291 6.80086 7.11233 6.42442C7.30055 6.44794 7.39466 6.49499 7.54172 6.54206C7.56524 6.18914 7.70641 5.85386 7.92405 5.68329C8.04168 5.90092 8.08874 5.94797 8.37696 6.01856C8.61224 5.54212 8.87692 5.51859 8.82987 4.75392C8.80634 4.28337 8.62988 3.33637 8.37696 3.10696C7.63583 3.20109 6.61824 5.92444 6.76529 7.42436H6.91822Z" fill="#CEB1AE"/>
<path d="M6.9198 7.42432H6.80217C6.65511 5.92441 7.75504 3.37162 8.49617 3.27751C8.01974 2.23052 7.46682 3.44221 7.23154 3.89512C6.73158 4.82448 5.65517 7.20669 5.79634 8.11252C6.13162 8.18309 6.73158 7.64196 6.9198 7.42432Z" fill="#CBC5C5"/>
<path d="M8.68395 12.8534C8.61338 13.0886 8.56632 13.3827 8.68395 13.6181C8.85454 13.571 8.83101 13.5474 8.87806 13.3299H8.85454C8.85454 13.3827 8.85454 13.4769 8.78395 13.3299C8.7369 13.2592 8.76043 13.4769 8.76043 13.2592C8.7369 12.9063 9.47217 13.0474 8.92512 13.9533C9.14278 14.0945 9.23693 14.2592 9.50154 14.3063C9.80747 14.3827 10.025 14.1886 10.2368 14.118C10.1897 13.9769 10.2838 14.1416 10.0957 13.9533C9.86031 13.7357 9.80747 13.4063 9.87801 13.0945L10.1897 13.071L10.3075 13.3827C10.1428 13.3063 10.1662 13.2828 10.0721 13.2357C10.1897 13.5945 10.1897 13.7651 10.5486 13.8297C11.3368 12.5005 9.47217 12.4769 8.68395 12.8534Z" fill="#46433C"/>
<path d="M10.5482 16.5472C10.5953 16.8591 10.5717 17.1473 10.5717 17.4531C10.5717 17.6884 10.6659 18.1473 10.6659 18.312C10.6423 18.8413 9.78351 19.0295 9.30713 18.8589C9.65999 19.2883 10.8835 19.1236 11.0952 18.6236C11.1952 18.406 11.0717 17.7884 11.0717 17.4531C11.0717 16.9826 11.1482 16.6885 11.1893 16.2649L10.0483 15.7356C9.40128 16.7649 10.0424 16.0062 10.5482 16.5472Z" fill="#D67179"/>
<path d="M13.1306 10.6417C12.7718 11.1122 12.366 10.9475 12.6718 10.377C10.813 10.2594 12.1247 12.071 13.0305 11.4475C13.3423 11.2358 13.2247 10.9241 13.1306 10.6417Z" fill="#242323"/>
<path d="M9.33005 5.13033C9.35365 5.03622 9.21242 5.0127 9.66534 4.848C9.85899 4.78149 10.0609 4.74189 10.2654 4.73035C9.93009 3.93628 9.14188 2.53637 8.44189 2.37167L8.92422 2.9187C9.45357 3.801 9.68894 4.18333 9.2595 4.89505C9.11827 5.11268 9.04183 4.99505 9.11827 5.23033C9.11827 5.25385 9.14188 5.27738 9.14188 5.27738C9.33004 5.23033 9.28297 5.27738 9.33005 5.13033ZM13.4358 5.25385C13.5122 5.30091 13.4592 5.30091 13.6062 5.32444H13.724C13.7945 5.25385 13.7475 4.49507 13.8416 3.94217C13.8651 3.77748 13.9415 3.51278 14.0122 3.32456C14.1533 2.89517 14.2945 2.89517 14.2004 2.73048C13.7945 3.01281 13.1769 4.51861 13.0298 4.91857C13.1476 4.97152 13.2004 4.97151 13.3416 5.06563C13.6298 5.25385 13.5593 5.18327 13.4358 5.25385Z" fill="#DDDAD9"/>
<path d="M7.80218 10.4712C7.87276 10.9476 7.80218 11.0183 7.34926 10.7594C7.3022 11.0183 7.27868 11.2594 7.54337 11.4064C7.80218 11.5476 8.06686 11.4946 8.30803 11.3299C8.85505 10.9241 8.4492 10.283 7.80218 10.4712Z" fill="#242323"/>
</svg>

<svg xmlns="http://www.w3.org/2000/svg" width="24" height="24" fill="none" viewBox="0 0 24 24">
    <path fill="#EEEEEC" d="M14.101 2.719c-.612 2.57-.53 2.4-2.7 2.211-.711.177-1.235-.264-2.04.083-.054.164-.1.264-.23.182-.07-.235.012-.082.13-.294.429-.694.188-1.076-.336-1.982l-.476-.547c0-.094-.312-.047-.383-.047-1.147.335-2.605 5.429-2.723 5.623l-.335-.165c-.118 1.13.388.965-.353 1.365-.024.094.059.417.13.606.117.335.329.823.117 1.105-1.206 1.683-1.806 4.882-.712 6.747.93 1.523 1.194 1.553 1.67 2.506.236-.6 7.606.788 10.147-1.43 2.494-2.217 3.106-2.8 2.988-5.723-.423-3.364-1.188-7.617-3.382-10.31-.094-.119-.559-.413-.706-.46-.318-.082-.606.324-.806.53"/>
    <path fill="#DDDAD9" d="M10.69 19.312c-.86.141-.783 0-1.477-.118-.577.094-1.912-.5-2.435-.906-.194-.14-.383-.311-.577-.429.07.188.118.353.218.547-1.624-.47-2.3-3.417-2.588-3.776-.312.93.117 2.447.506 3.117.258.43.606.794.87 1.177q.177.284.353.611c.212.383.235.37.47.494v-.6c.1.095.107.148.2.289 2.024 2.97 7.03 1.611 9.235-.289.336-.329.653-.782 1.03-1.046 0 .064.088.176.117.235.477-.141 1.67-1.424 2.006-1.924.912-1.382.624-2.194.741-3.123.289.141.236.353.577.47a5.84 5.84 0 0 0-1.341-3.258c-.312-.382-.283-.812-.047-1.312l.205-.44c-1.423.07-.176.517-.235-1.195l-.565-.13c-.1.1-.1-.07-.117.265-.03.383.041.289-.177.741.077.118.147.071.195.236.094.564-.371 1.153-.765 1.476.241.194.435.235.788.335.218.142.812 1.718.912 2.288.047.33.135.718-.118.977-.053-.476-.147-.647-.435-.906-.047.094-.047 0-.024.235.265 1.412-.235 3.624-1.67 4.124.07-.283.217-.306.288-.689-1.964.977-3.012 2.63-5.494 2.883.17-.236.265-.189.412-.312.088-.07.018-.024.088-.118-.188 0-1.147.212-1.147.07"/>
    <path fill="#CBC5C5" d="M8.378 21.124a.5.5 0 0 0 .118.094l.117.047c.07.023.17.047.265.1l.453.164-.953-.14c.118.211.523.282.741.352.882.265 2.03.335 2.912.17 2.194-.411 2.6-.905 3.294-1.1.264.195.529.6 1 .577.147-1.717 1.794-1.906 2.964-3.882.694-1.212 1.312-1.606.776-3.83-.07-.287-.117-.57-.235-.834-.094-.212-.311-.812-.476-.953.165.647.282 1.117.353 1.906-.236-.118-.07-.095-.353-.236-.118.93.076 1.753-.806 3.112-.335.5-1.465 1.747-1.941 1.888-.03-.059-.118-.165-.118-.235-.388.294-.706.776-1.094 1.082a8 8 0 0 1-2.194 1.359c-1.194.576-3.676.74-4.823.358"/>
    <path fill="#242323" d="M5.225 7.613 4.772 7.4c-.024.664.094.976.117 1.523-.288.024-.406.094-.6.165.294.647.506.812.483 1.623-.67 1.118-1.389 2.265-1.294 3.647l.17-.1c-.382 4.124 1.241 3.412 2.077 6.1.288-.07.311-.141.529-.33.882.83 1.023.86 2.076 1.336l.953.14c-.094-.023-.312-.117-.453-.164-.07-.03-.17-.053-.264-.1l-.118-.047c-.07-.047-.07-.047-.118-.094-.482 0-1.7-.906-2.082-1.476-.07-.118-.118-.218-.235-.336l-.024.718c-.235-.118-.217-.194-.412-.577-.117-.211-.258-.4-.376-.588-.265-.388-.553-.694-.812-1.147-.382-.67-.811-2.17-.506-3.1.053-.452.195-.858.36-1.211-.26.094-.024.07-.454.33.024-.883.67-2.118 1.147-2.789.36-.47-.288-1.594-.235-1.735.259-.147.5.212.688.33-.117-.524-.453-1.048-.382-1.765l.335.17C5.46 7.73 6.895 2.63 8.066 2.301c.905-.265 1.882 1.741 2.176 2.382-.312.024-.841.094-.959.43.406-.118.647-.236 1.118-.17.623.1.217.24.982.052.553-.147 1.724 0 2.13.259.211-.141-.295-.312-.483-.382.17-.5 1.194-2.836 1.865-2.665 1.117.259 2.746 4.43 3.035 5.453l.235.382.265-.188c.023.711-.336 1.164-.53 1.711.335-.188.335-.47.841-.5l-.217.36c-.236.5-.265.928.047 1.31.553.648 1.264 2.048 1.482 2.93.118.5.265 1.412.07 1.882-.187-.258-.335-.617-.529-.835.077 1.859-.547 2.741-1.976 3.912l-.624.57c-.811.812-.688.953-1.023 1.335-.265-.429-.076-.623 0-1.1-.741.553-.6.883-1.765 1.36-1.223.5-1.964.552-2.37.717 1.27.094 3.13-.547 3.73-1.235l.046.064c.235.5-.07.077.477.67.164-.17.235-.546.382-.764.57-.594 1.1-1 1.718-1.547.623-.57.623-.717 1.076-1.382.476-.694.43-.859.594-1.412.118-.376.118-.088.118-.064l.194.352c.117-.094.117-.094.217-.423.812-2.788-2.129-4.941-1.623-6.123.141-.336.235-.336.5-.53-.312-.235-.312-.258-.718-.282.17-.476.194-.906.141-1.453-.14.118-.282.236-.453.353C17.83 6.4 17 4.254 16.16 3.113c-1.117-1.553-1.623-1.435-2.553.07-.217.353-.647 1.236-.764 1.647-.477-.03-.67-.176-1.218-.076-.882.141-.147.217-1.053.047-.288-.835-1.335-2.835-2.435-2.694-1.241.118-2.553 4.24-2.911 5.506"/>
    <path fill="#242323" d="M9.766 16.453c.065-.288.165-.453.282-.664l1.024.523c-.047.43-.2.706-.2 1.176 0 .312.194.836.117 1.071-.188.5-1.188.359-1.682.353-.647-.077-1.053-1.459-.353-2.765.26-.506.283-.358.618-.67l.259.164c-.647.883-.406 1.86-.306 2.6.07-.547 0-1.382.235-1.788zm-.553 2.741c.694.141.618.265 1.477.118.147-.094.294-.141.411-.235.5-.383.236-1.253.282-1.824.477-.335 1.365-.441 1.96-1.73l.358-.928-.047.57c.094-.188.235-.259.265-.588.023-.27-.147-.459-.265-.6l-.906-.883c.118.383.353.736.665.953-.07.689-.765 1.547-1.412 1.883-.83.43-1.74-.383-2.264-.718v-.57c.335-.165.53-.165.788-.406.835-.806.476-1.712-.788-1.783-.383-.029-.765 0-1.024.189-.241.164-.382.43-.359.788.047.57.647 1.023 1.118 1.165v.67c-.235.118-.5.33-.765.5-.664.43-1.406-1.03-1.188-2.218.141-.694.647-1.094 1.141-1.382.718-.406 1.27-.335 2.106-.164-.453-.53-1.841-.477-2.606.188-.617.53-1.147 1.14-.859 2.411.289 1.33.671 1.065.93 1.641.1.189.294.353.294.571 0 .188-.1.453-.124.765-.07 1.047.383 1.235.812 1.617"/>
    <path fill="#EA888D" d="M9.296 18.918c.476.17 1.37-.06 1.394-.583 0-.188-.094-.617-.094-.858 0-.306.023-.618-.024-.906-.253-.394-.641-.506-.888-.153-.265.406-.1.812-.118 1.312-.123-.742-.33-1.23.341-2.112l-.347-.153c-.335.306-.335.1-.594.6-.74 1.312-.312 2.782.33 2.853"/>
    <path fill="#CEB1AE" d="M16.312 7.518c.265-.358-.006-2-.364-2.67-.218-.43-.812-1.812-1.483-1.594-.288.906-.547 2.041.312 2.706.265-.141.241-.206.412-.418.235.306.323.588.37 1l.389-.176c-.053.447-.112.958.364 1.152"/>
    <path fill="#CBC5C5" d="M14.465 3.278c.67-.218 1.265 1.164 1.483 1.594.329.67.617 2.24.352 2.6l.1.093.383.312c.188.118.382.259.647.212.33-.665-.67-2.882-.959-3.453-.288-.547-.576-1-.859-1.43-.476-.74-.788-.787-1.147.071"/>
    <path fill="#CEB1AE" d="M6.918 7.424c.335-.235.265-.623.194-1 .189.024.283.071.43.118.023-.353.164-.688.382-.859.118.218.165.265.453.336.235-.477.5-.5.453-1.265-.024-.47-.2-1.418-.453-1.647-.741.094-1.759 2.817-1.612 4.317z"/>
    <path fill="#CBC5C5" d="M6.92 7.424h-.118c-.147-1.5.953-4.052 1.694-4.146-.476-1.047-1.03.164-1.264.617-.5.93-1.577 3.312-1.436 4.218.336.07.936-.471 1.124-.689"/>
    <path fill="#46433C" d="M8.684 12.853c-.07.236-.118.53 0 .765.17-.047.147-.07.194-.288h-.023c0 .053 0 .147-.071 0-.047-.07-.024.147-.024-.07-.023-.354.712-.213.165.693.218.142.312.306.577.353.305.077.523-.117.735-.188-.047-.141.047.024-.141-.165-.236-.217-.289-.547-.218-.858l.312-.024.117.312c-.164-.077-.14-.1-.235-.147.118.358.118.53.477.594.788-1.33-1.077-1.353-1.865-.977"/>
    <path fill="#D67179" d="M10.548 16.547c.047.312.024.6.024.906 0 .235.094.694.094.859-.024.53-.882.717-1.359.547.353.43 1.576.265 1.788-.235.1-.218-.023-.836-.023-1.17 0-.471.076-.765.117-1.19l-1.14-.528c-.648 1.029-.007.27.5.811"/>
    <path fill="#242323" d="M13.13 10.642c-.358.47-.764.306-.458-.265-1.859-.118-.547 1.694.358 1.07.312-.211.195-.523.1-.805"/>
    <path fill="#DDDAD9" d="M9.33 5.13c.024-.094-.118-.117.335-.282q.293-.1.6-.118c-.335-.794-1.123-2.194-1.823-2.358l.482.547c.53.882.765 1.264.335 1.976-.14.218-.217.1-.14.335 0 .024.023.047.023.047.188-.047.141 0 .188-.147m4.106.124c.076.047.023.047.17.07h.118c.07-.07.024-.829.118-1.382.023-.165.1-.43.17-.617.141-.43.282-.43.188-.595-.405.283-1.023 1.789-1.17 2.189.118.053.17.053.312.147.288.188.217.117.094.188"/>
    <path fill="#242323" d="M7.802 10.471c.07.477 0 .547-.453.288-.047.26-.07.5.194.647.26.142.524.089.765-.076.547-.406.141-1.047-.506-.859"/>
</svg>
